src/assets/logos/digitalcatapult.svg

<svg height="79" viewBox="0 0 204 79" width="204" xmlns="http://www.w3.org/2000/svg"><path d="m176.76 10.7013889c-3.68 0-4.76-2.0763889-4.76-5.35069446 0-3.27430555 1.08-5.35069444 4.76-5.35069444h22.48c3.68 0 4.76 2.11631944 4.76 5.35069444 0 3.27430556-1.08 5.35069446-4.76 5.35069446h-5.4v30.0277778c0 3.8732639-2.36 5.2708333-5.84 5.2708333-3.52 0-5.84-1.3177083-5.84-5.2708333v-30.0277778zm-56.719288.5059975c0-3.58333337 2.076336-4.76420458 5.170484-4.76420458s5.170483 1.22159091 5.170483 4.72348488v18.6903409c0 5.2935606 1.913486 8.1032197 5.618321 8.1032197 3.745547 0 5.618321-2.8096591 5.618321-8.1439394v-21.09280305c0-3.58333333 2.076335-4.72348485 5.211196-4.72348485 3.094147 0 5.170483 1.22159091 5.170483 4.72348485v21.21496215c0 10.3020833-4.519084 17.061553-16 17.061553-11.440204 0-16-6.71875-16-17.0208333zm41.882911 35.7926136c-3.55595 0-4.923623-1.9297445-4.923623-5.2554745v-34.69434302c0-3.85948905 2.110124-5.05018248 5.353464-5.05018248 3.243339 0 5.353463 1.19069343 5.353463 5.05018248v29.60310222h6.955595c3.321492 0 4.337478 2.0529197 4.337478 5.1322992 0 3.1614964-1.015986 5.1322993-4.337478 5.1322993zm-69.923623-5.4898876v-26.7775281c0-3.0337079 1.3914373-4.7325843 4.8103976-4.7325843h6.4006114c10.614679 0 14.788991 4.9752809 14.788991 12.9438202 0 8.0089888-4.850153 12.8224719-13 12.8224719h-3.33945v5.7438203c0 3.3168539-1.749235 4.4898876-4.8103971 4.4898876-2.82263 0-4.8501529-1.1730337-4.8501529-4.4898876zm9.66055-13.5101124h1.232416c4.571866 0 5.446484-2.1033708 5.446484-5.0966292 0-2.7101124-.834863-5.1370787-5.446484-5.1370787h-1.232416zm-56.5985345-2.5766526c-2.3255814 0-3.0620155-1.5499297-3.0620155-3.7116737 0-2.2025316.6976744-3.7116737 3.0620155-3.7116737l13.875969.0407876c2.3643411 0 3.0620155 1.5907173 3.0620155 3.7116737s-.6976744 3.7116737-3.0620155 3.7116737h-2.9457364v17.9057665c0 2.7735584-1.627907 3.6300985-3.9534884 3.6300985s-3.9534884-.8565401-3.9534884-3.6300985v-17.9057665zm24.1774872 13.7754331-1.0089425 2.9378049c-1.0896579 3.0585366-2.0178851 3.8634146-4.9639972 3.8634146-2.9864698 0-4.9639972-1.5695122-4.03577-4.8292683.8475117-2.9378049 7.7083208-22.2951219 7.7083208-22.2951219 1.8160965-4.9097561 3.3093314-5.8756098 7.3854591-5.8756098 4.0357701 0 5.5693627.845122 7.3451015 5.8353659 0 0 6.3765167 19.4378048 7.143313 22.254878.8475117 3.1792683-1.2914464 4.8695122-4.2779162 4.8695122-2.8250391 0-4.2779163-.6841463-5.0447126-3.7829268l-.807154-2.9780488zm1.614308-7.6865854h6.0940128l-2.8653968-12.354878zm-42.8902276 8.8508911-.6726095 2.4916793c-.7913052 2.3691377-1.6221757 3.1452345-3.8773956 3.1452345-2.3343505 0-3.9565263-1.3071104-3.2443515-3.9213313.6726094-2.3691377 6.0534851-18.3403934 6.0534851-18.3403934 1.3847841-3.9213313 2.6904378-4.7382753 5.8556587-4.7382753 3.1256558 0 4.5500052.816944 5.8556588 4.6974281 0 0 5.3413104 16.0529501 5.9347893 18.2995462.6330442 2.6142209-1.1078273 3.9621785-3.4421778 3.9621785-2.4530462 0-3.323482-.6944024-3.9169609-3.0635401l-.7913052-2.5325265zm1.7013063-6.290469h4.7873967l-2.5321768-10.1709531zm-18.9071599 4.7365821c1.2508987 0 2.1265279-.3918228 3.1272469-1.0971039 1.667865-1.1754685 3.0021571-1.0579216 4.2113592.4701874 1.1675055 1.4497445.8756292 2.9386712-.5420561 4.2708688-1.5010786 1.3713799-4.1696626 2.5468484-7.3386062 2.5468484-6.08770734 0-10.2156733-4.7018739-10.2156733-11.5195911 0-6.9744464 4.58662884-11.4804089 10.7160328-11.4804089 3.2940335 0 5.5039547 1.0579216 7.0050332 2.350937 1.3759886 1.2146507 1.7095616 2.5860306.667146 4.0749574-.9173258 1.3713799-2.6685841 1.9982964-4.0445727.9403748-.7505393-.5877343-1.7095617-1.4105622-3.3774267-1.4105622-2.4184043 0-4.08626934 2.1550255-4.08626934 5.5247019.04169663 3.2129471 1.54277516 5.3287904 3.87778624 5.3287904zm104.7701155 29.9759247h2.428571c3.539952 0 5.186441-2.4380166 5.186441-5.9090909 0-3.3884298-1.687651-5.6611571-4.980629-5.6611571h-2.634383zm-4.527845-13.5123967c0-1.4876033 1.11138-2.2727273 2.263923-2.2727273h5.433414c5.92736 0 9.302663 4.7107438 9.302663 9.8760331 0 6.5702479-4.363196 10.1239669-9.302663 10.1239669h-5.433414c-1.193705 0-2.263923-.8264463-2.263923-2.2727273zm19.397743 5.1988636c0-1.1931818.872842-2.1875 2.102755-2.1875 1.229914 0 2.102756.9545455 2.102756 2.1875v10.3409091c0 1.2329545-.872842 2.1875-2.102756 2.1875-1.229913 0-2.102755-.9943182-2.102755-2.1875zm2.102755-8.4715909c1.388612 0 2.499502 1.1136364 2.499502 2.5056818 0 1.4318182-1.150564 2.5056818-2.499502 2.5056818-1.388612 0-2.499502-1.1136363-2.499502-2.5056818-.039674-1.3522727 1.11089-2.5056818 2.499502-2.5056818zm11.020393 10.0877863c-1.963788 0-3.050139 1.6431297-3.050139 3.6068702 0 2.0839695 1.086351 3.6469466 3.050139 3.6469466 1.963789 0 3.05014-1.5629771 3.05014-3.6469466 0-1.9637405-1.086351-3.6068702-3.05014-3.6068702zm7.479109 9.4179389c0 5.4503817-3.718663 7.4942748-8.064067 7.4942748-2.29805 0-6.643454-.8416031-6.643454-3.1660305 0-.9618321.961003-1.8435115 1.83844-1.8435115 1.295265 0 2.130919 1.2423664 4.721449 1.2423664 2.75766 0 3.67688-1.4026717 3.67688-3.7671755h-.041783c-.961003 1.2824427-2.548746 1.6431297-4.052925 1.6431297-4.303621 0-6.43454-3.5667939-6.43454-7.4141221 0-4.288168 3.008357-7.6946565 6.852368-7.6946565 1.671309 0 2.799443.480916 3.802228 1.6431298.292479-.6812977 1.002786-1.3625954 2.089137-1.3625954 1.295264 0 2.214484.961832 2.214484 2.2041984v11.0209924zm3.396825-11.0341343c0-1.1931818.873016-2.1875 2.103175-2.1875s2.103175.9545455 2.103175 2.1875v10.3409091c0 1.2329545-.873016 2.1875-2.103175 2.1875s-2.103175-.9943182-2.103175-2.1875zm2.103175-8.4715909c1.388889 0 2.5 1.1136364 2.5 2.5056818 0 1.4318182-1.150794 2.5056818-2.5 2.5056818-1.388889 0-2.5-1.1136363-2.5-2.5056818 0-1.3522727 1.111111-2.5056818 2.5-2.5056818zm7.125483 10.0835031h-.463321c-1.312741 0-2.162162-.610998-2.162162-1.9959267s.849421-1.9959267 2.162162-1.9959267h.463321v-2.8513238c0-1.2627292.84942-2.2403259 2.046332-2.2403259 1.196911 0 2.046332.9775967 2.046332 2.2403259v2.8513238h1.119691c1.312741 0 2.162162.610998 2.162162 1.9959267s-.849421 1.9959267-2.162162 1.9959267h-1.119691v8.676171c0 1.2627292-.849421 2.2403259-2.046332 2.2403259-1.235522 0-2.046332-.9775967-2.046332-2.2403259zm12.815858 3.9372761c0 2.0363637 1.089385 3.7402598 3.058659 3.7402598s3.058659-1.7038961 3.058659-3.7402598c0-2.0363636-1.089385-3.7402597-3.058659-3.7402597s-3.058659 1.7038961-3.058659 3.7402597zm10.558659 5.4025974c0 1.2883117-.921788 2.2857143-2.22067 2.2857143-1.089386 0-1.759777-.7480519-2.094972-1.412987-1.005587 1.2051948-2.136872 1.7038961-3.81285 1.7038961-3.896648 0-6.871508-3.5324675-6.871508-8.0207792 0-4.4467533 3.01676-7.9792208 6.871508-7.9792208 1.675978 0 2.807263.4987013 3.81285 1.7038961.293296-.7064935 1.005586-1.412987 2.094972-1.412987 1.298882 0 2.22067.9974026 2.22067 2.2857143zm2-17.2358766c0-1.2329545 1.037736-2.1875 2.5-2.1875s2.5.9545455 2.5 2.1875v16.625c0 1.2329545-1.037736 2.1875-2.5 2.1875s-2.5-.9545455-2.5-2.1875z" fill-rule="evenodd"/></svg>

<svg xmlns="http://www.w3.org/2000/svg" width="204" height="79" viewBox="0 0 204 79">
  <path fill-rule="evenodd" d="M176.76,10.7013889 C173.08,10.7013889 172,8.625 172,5.35069444 C172,2.07638889 173.08,0 176.76,0 L199.24,0 C202.92,0 204,2.11631944 204,5.35069444 C204,8.625 202.92,10.7013889 199.24,10.7013889 L193.84,10.7013889 L193.84,40.7291667 C193.84,44.6024306 191.48,46 188,46 C184.48,46 182.16,44.6822917 182.16,40.7291667 L182.16,10.7013889 L176.76,10.7013889 Z M120.040712,11.2073864 C120.040712,7.62405303 122.117048,6.44318182 125.211196,6.44318182 C128.305344,6.44318182 130.381679,7.66477273 130.381679,11.1666667 L130.381679,29.8570076 C130.381679,35.1505682 132.295165,37.9602273 136,37.9602273 C139.745547,37.9602273 141.618321,35.1505682 141.618321,29.8162879 L141.618321,8.72348485 C141.618321,5.14015152 143.694656,4 146.829517,4 C149.923664,4 152,5.22159091 152,8.72348485 L152,29.938447 C152,40.2405303 147.480916,47 136,47 C124.559796,47 120,40.28125 120,29.9791667 L120.040712,11.2073864 Z M161.923623,47 C158.367673,47 157,45.0702555 157,41.7445255 L157,7.05018248 C157,3.19069343 159.110124,2 162.353464,2 C165.596803,2 167.706927,3.19069343 167.706927,7.05018248 L167.706927,36.6532847 L174.662522,36.6532847 C177.984014,36.6532847 179,38.7062044 179,41.7855839 C179,44.9470803 177.984014,46.9178832 174.662522,46.9178832 L161.923623,47 Z M92,41.5101124 L92,14.7325843 C92,11.6988764 93.3914373,10 96.8103976,10 L103.211009,10 C113.825688,10 118,14.9752809 118,22.9438202 C118,30.952809 113.149847,35.7662921 105,35.7662921 L101.66055,35.7662921 L101.66055,41.5101124 C101.66055,44.8269663 99.911315,46 96.8501529,46 C94.0275229,46 92,44.8269663 92,41.5101124 Z M101.66055,28 L102.892966,28 C107.464832,28 108.33945,25.8966292 108.33945,22.9033708 C108.33945,20.1932584 107.504587,17.7662921 102.892966,17.7662921 L101.66055,17.7662921 L101.66055,28 Z M45.0620155,25.4233474 C42.7364341,25.4233474 42,23.8734177 42,21.7116737 C42,19.5091421 42.6976744,18 45.0620155,18 L58.9379845,18.0407876 C61.3023256,18.0407876 62,19.6315049 62,21.7524613 C62,23.8734177 61.3023256,25.464135 58.9379845,25.464135 L55.9922481,25.464135 L55.9922481,43.3699015 C55.9922481,46.1434599 54.3643411,47 52.0387597,47 C49.7131783,47 48.0852713,46.1434599 48.0852713,43.3699015 L48.0852713,25.464135 L45.0620155,25.4233474 Z M69.2395027,39.1987805 L68.2305602,42.1365854 C67.1409023,45.195122 66.2126751,46 63.266563,46 C60.2800932,46 58.3025658,44.4304878 59.230793,41.1707317 C60.0783047,38.2329268 66.9391138,18.8756098 66.9391138,18.8756098 C68.7552103,13.9658537 70.2484452,13 74.3245729,13 C78.360343,13 79.8939356,13.845122 81.6696744,18.8353659 C81.6696744,18.8353659 88.0461911,38.2731707 88.8129874,41.0902439 C89.6604991,44.2695122 87.521541,45.9597561 84.5350712,45.9597561 C81.7100321,45.9597561 80.2571549,45.2756098 79.4903586,42.1768293 L78.6832046,39.1987805 L69.2395027,39.1987805 Z M70.8538107,31.5121951 L76.9478235,31.5121951 L74.0824267,19.1573171 L70.8538107,31.5121951 Z M27.9635831,40.3630862 L27.2909736,42.8547655 C26.4996684,45.2239032 25.6687979,46 23.413578,46 C21.0792275,46 19.4570517,44.6928896 20.1692265,42.0786687 C20.8418359,39.709531 26.2227116,23.7382753 26.2227116,23.7382753 C27.6074957,19.816944 28.9131494,19 32.0783703,19 C35.2040261,19 36.6283755,19.816944 37.9340291,23.6974281 C37.9340291,23.6974281 43.2753395,39.7503782 43.8688184,41.9969743 C44.5018626,44.6111952 42.7609911,45.9591528 40.4266406,45.9591528 C37.9735944,45.9591528 37.1031586,45.2647504 36.5096797,42.8956127 L35.7183745,40.3630862 L27.9635831,40.3630862 Z M29.6648894,34.0726172 L34.4522861,34.0726172 L31.9201093,23.9016641 L29.6648894,34.0726172 Z M10.7577295,38.8091993 C12.0086282,38.8091993 12.8842574,38.4173765 13.8849764,37.7120954 C15.5528414,36.5366269 16.8871335,36.6541738 18.0963356,38.1822828 C19.2638411,39.6320273 18.9719648,41.120954 17.5542795,42.4531516 C16.0532009,43.8245315 13.3846169,45 10.2156733,45 C4.12796596,45 0,40.2981261 0,33.4804089 C0,26.5059625 4.58662884,22 10.7160328,22 C14.0100663,22 16.2199875,23.0579216 17.721066,24.350937 C19.0970546,25.5655877 19.4306276,26.9369676 18.388212,28.4258944 C17.4708862,29.7972743 15.7196279,30.4241908 14.3436393,29.3662692 C13.5931,28.7785349 12.6340776,27.955707 10.9662126,27.955707 C8.5478083,27.955707 6.87994326,30.1107325 6.87994326,33.4804089 C6.92163989,36.693356 8.42271842,38.8091993 10.7577295,38.8091993 Z M115.527845,68.785124 L117.956416,68.785124 C121.496368,68.785124 123.142857,66.3471074 123.142857,62.8760331 C123.142857,59.4876033 121.455206,57.214876 118.162228,57.214876 L115.527845,57.214876 L115.527845,68.785124 Z M111,55.2727273 C111,53.785124 112.11138,53 113.263923,53 L118.697337,53 C124.624697,53 128,57.7107438 128,62.8760331 C128,69.446281 123.636804,73 118.697337,73 L113.263923,73 C112.070218,73 111,72.1735537 111,70.7272727 L111,55.2727273 Z M130.397743,60.4715909 C130.397743,59.2784091 131.270585,58.2840909 132.500498,58.2840909 C133.730412,58.2840909 134.603254,59.2386364 134.603254,60.4715909 L134.603254,70.8125 C134.603254,72.0454545 133.730412,73 132.500498,73 C131.270585,73 130.397743,72.0056818 130.397743,70.8125 L130.397743,60.4715909 Z M132.500498,52 C133.88911,52 135,53.1136364 135,54.5056818 C135,55.9375 133.849436,57.0113636 132.500498,57.0113636 C131.111886,57.0113636 130.000996,55.8977273 130.000996,54.5056818 C129.961322,53.1534091 131.111886,52 132.500498,52 Z M143.520891,62.0877863 C141.557103,62.0877863 140.470752,63.730916 140.470752,65.6946565 C140.470752,67.778626 141.557103,69.3416031 143.520891,69.3416031 C145.48468,69.3416031 146.571031,67.778626 146.571031,65.6946565 C146.571031,63.730916 145.48468,62.0877863 143.520891,62.0877863 Z M151,71.5057252 C151,76.9561069 147.281337,79 142.935933,79 C140.637883,79 136.292479,78.1583969 136.292479,75.8339695 C136.292479,74.8721374 137.253482,73.990458 138.130919,73.990458 C139.426184,73.990458 140.261838,75.2328244 142.852368,75.2328244 C145.610028,75.2328244 146.529248,73.8301527 146.529248,71.4656489 L146.487465,71.4656489 C145.526462,72.7480916 143.938719,73.1087786 142.43454,73.1087786 C138.130919,73.1087786 136,69.5419847 136,65.6946565 C136,61.4064885 139.008357,58 142.852368,58 C144.523677,58 145.651811,58.480916 146.654596,59.6431298 C146.947075,58.9618321 147.657382,58.2805344 148.743733,58.2805344 C150.038997,58.2805344 150.958217,59.2423664 150.958217,60.4847328 L150.958217,71.5057252 L151,71.5057252 Z M154.396825,60.4715909 C154.396825,59.2784091 155.269841,58.2840909 156.5,58.2840909 C157.730159,58.2840909 158.603175,59.2386364 158.603175,60.4715909 L158.603175,70.8125 C158.603175,72.0454545 157.730159,73 156.5,73 C155.269841,73 154.396825,72.0056818 154.396825,70.8125 L154.396825,60.4715909 Z M156.5,52 C157.888889,52 159,53.1136364 159,54.5056818 C159,55.9375 157.849206,57.0113636 156.5,57.0113636 C155.111111,57.0113636 154,55.8977273 154,54.5056818 C154,53.1534091 155.111111,52 156.5,52 Z M163.625483,62.0835031 L163.162162,62.0835031 C161.849421,62.0835031 161,61.4725051 161,60.0875764 C161,58.7026477 161.849421,58.0916497 163.162162,58.0916497 L163.625483,58.0916497 L163.625483,55.2403259 C163.625483,53.9775967 164.474903,53 165.671815,53 C166.868726,53 167.718147,53.9775967 167.718147,55.2403259 L167.718147,58.0916497 L168.837838,58.0916497 C170.150579,58.0916497 171,58.7026477 171,60.0875764 C171,61.4725051 170.150579,62.0835031 168.837838,62.0835031 L167.718147,62.0835031 L167.718147,70.7596741 C167.718147,72.0224033 166.868726,73 165.671815,73 C164.436293,73 163.625483,72.0224033 163.625483,70.7596741 L163.625483,62.0835031 Z M176.441341,66.0207792 C176.441341,68.0571429 177.530726,69.761039 179.5,69.761039 C181.469274,69.761039 182.558659,68.0571429 182.558659,66.0207792 C182.558659,63.9844156 181.469274,62.2805195 179.5,62.2805195 C177.530726,62.2805195 176.441341,63.9844156 176.441341,66.0207792 Z M187,71.4233766 C187,72.7116883 186.078212,73.7090909 184.77933,73.7090909 C183.689944,73.7090909 183.019553,72.961039 182.684358,72.2961039 C181.678771,73.5012987 180.547486,74 178.871508,74 C174.97486,74 172,70.4675325 172,65.9792208 C172,61.5324675 175.01676,58 178.871508,58 C180.547486,58 181.678771,58.4987013 182.684358,59.7038961 C182.977654,58.9974026 183.689944,58.2909091 184.77933,58.2909091 C186.078212,58.2909091 187,59.2883117 187,60.5766234 L187,71.4233766 Z M189,54.1875 C189,52.9545455 190.037736,52 191.5,52 C192.962264,52 194,52.9545455 194,54.1875 L194,70.8125 C194,72.0454545 192.962264,73 191.5,73 C190.037736,73 189,72.0454545 189,70.8125 L189,54.1875 Z"/>
</svg>
